; generated by PrusaSlicer 2.9.2 on 2025-07-14 at 21:47:41 UTC


;
;
; 

; external perimeters extrusion width = 0.45mm
; perimeters extrusion width = 0.45mm
; infill extrusion width = 0.45mm
; solid infill extrusion width = 0.45mm
; top infill extrusion width = 0.40mm
; first layer extrusion width = 0.42mm

M73 P0 R65
M73 Q0 S66
M201 X1000 Y1000 Z200 E5000 ; sets maximum accelerations, mm/sec^2
M203 X200 Y200 Z12 E120 ; sets maximum feedrates, mm / sec
M204 S1250 T1250 ; sets acceleration (S) and retract acceleration (R), mm/sec^2
M205 X8.00 Y8.00 Z0.40 E4.50 ; sets the jerk limits, mm/sec
M205 S0 T0 ; sets the minimum extruding and travel feed rate, mm/sec

; printing object MeshBody1 id:0 copy 0
; stop printing object MeshBody1 id:0 copy 0

;TYPE:Custom
M862.3 P "MK3S" ; printer model check
M862.1 P0.4 ; nozzle diameter check
M115 U3.14.1 ; tell printer latest fw version
G90 ; use absolute coordinates
M83 ; extruder relative mode
M104 S215 ; set extruder temp
M140 S60 ; set bed temp
M190 S60 ; wait for bed temp
M109 S215 ; wait for extruder temp
G28 W ; home all without mesh bed level
G80 X77.0729 Y59.2628 W95.8532 H91.5492 ; mesh bed levelling

G1 Z0.2 F720
G1 Y-3 F1000 ; go outside print area
G92 E0
G1 X60 E9 F1000 ; intro line
G1 X100 E12.5 F1000 ; intro line

G92 E0
M221 S95

; Don't change E values below. Excessive value can damage the printer.
M907 E430 ; set extruder motor current
G21 ; set units to millimeters
G90 ; use absolute coordinates
M83 ; use relative distances for extrusion

M900 K0.05 ; Filament gcode LA 1.5
M900 K30 ; Filament gcode LA 1.0




M107
;LAYER_CHANGE
;Z:0.2
;HEIGHT:0.2
G1 E-.8 F2100
G1 Z.6 F720
G1 X105.59 Y107.09 F10800
G1 Z.2 F720
G1 E.8 F2100
M204 S800
;TYPE:Skirt/Brim
;WIDTH:0.42
G1 F1200
G1 X120.639 Y92.252 E.66264
G1 X137.599 Y75.864 E.73946
G1 X158.447 Y60.46 E.81275
G1 X159.328 Y59.971 E.03159
G1 X160.296 Y59.634 E.03214
G1 X161.258 Y59.473 E.03058
G1 X162.01 Y59.456 E.02358
G1 X163.026 Y59.588 E.03212
G1 X163.829 Y59.824 E.02624
G1 X164.755 Y60.264 E.03215
G1 X165.592 Y60.857 E.03216
G1 X171.085 Y66.522 E.24741
G1 X171.954 Y67.688 E.0456
G1 X172.369 Y68.581 E.03088
G1 X172.587 Y69.307 E.02377
G1 X172.73 Y70.331 E.03242
G1 X172.713 Y71.175 E.02647
G1 X172.53 Y72.193 E.03243
G1 X172.303 Y72.864 E.02221
G1 X171.833 Y73.785 E.03242
G1 X171.21 Y74.61 E.03241
G1 X83.669 Y150.049 E3.62335
G1 X82.569 Y150.554 E.03795
G1 X81.988 Y150.625 E.01835
G1 X80.703 Y150.378 E.04103
G1 X80.164 Y149.97 E.0212
G1 X78.244 Y147.915 E.08818
G1 X77.835 Y147.271 E.02392
G1 X77.463 Y146.362 E.0308
G1 X77.28 Y145.397 E.0308
G1 X77.292 Y144.416 E.03076
G1 X77.499 Y143.456 E.03079
G1 X77.892 Y142.557 E.03076
G1 X98.508 Y114.47 E1.09242
G1 X100.188 Y112.417 E.08318
G1 X105.548 Y107.132 E.23601
M204 S1000
;WIPE_START
G1 F8640
G1 X105.59 Y107.09 E-.01371
G1 X108.015 Y104.699 E-.78629
;WIPE_END
G1 Z.6 F720
; printing object MeshBody1 id:0 copy 0
G1 X123.521 Y94.592 F10800
G1 Z.2 F720
G1 E.8 F2100
M204 S800
;TYPE:External perimeter
;WIDTH:0.459241
G1 F1200
G1 X123.558 Y94.588 E.00129
;WIDTH:0.419999
G1 X123.756 Y94.718 E.00743
G1 X139.39 Y79.822 E.67707
;WIDTH:0.455043
G1 X139.412 Y79.76 E.00225
;WIDTH:0.490086
G1 X139.434 Y79.698 E.00245
;WIDTH:0.525129
G1 X139.456 Y79.635 E.00268
;WIDTH:0.568269
G1 X139.719 Y79.478 E.01338
G1 X139.911 Y79.466 E.0084
;WIDTH:0.518846
G1 X140.103 Y79.455 E.00761
;WIDTH:0.469423
G1 X140.295 Y79.444 E.00682
;WIDTH:0.419999
G1 X140.553 Y79.52 E.00843
;WIDTH:0.422617
G1 X140.892 Y79.796 E.0138
G1 X144.651 Y84.573 E.19191
;WIDTH:0.426651
G1 X144.876 Y84.853 E.01146
G1 X145.016 Y85.122 E.00968
;WIDTH:0.419999
G1 X145.039 Y85.411 E.00909
G1 X145.008 Y85.626 E.00681
G1 X144.862 Y85.929 E.01055
G1 X144.058 Y86.726 E.0355
G1 X120.032 Y109.811 E1.0447
G1 X119.697 Y110.002 E.01209
G1 X119.208 Y110.036 E.01537
;WIDTH:0.437434
G1 X118.852 Y109.859 E.01304
G1 X118.632 Y109.632 E.01037
;WIDTH:0.42015
G1 X114.707 Y104.643 E.19911
;WIDTH:0.420392
G1 X114.461 Y104.31 E.01299
G1 X114.402 Y104.125 E.00609
;WIDTH:0.419999
G1 X114.39 Y103.823 E.00948
;WIDTH:0.44139
G1 X114.556 Y103.372 E.01592
;WIDTH:0.484775
G1 X114.621 Y103.275 E.00429
;WIDTH:0.52816
G1 X114.686 Y103.177 E.00474
;WIDTH:0.571545
G1 X114.751 Y103.08 E.00513
G1 X114.946 Y102.885 E.01212
;WIDTH:0.56763
G1 X122.538 Y95.587 E.45946
;WIDTH:0.577714
G1 X122.889 Y95.203 E.02313
G1 X123.326 Y94.617 E.03251
;WIDTH:0.576966
G1 X123.384 Y94.609 E.0026
;WIDTH:0.537725
G1 X123.442 Y94.602 E.0024
;WIDTH:0.498483
G1 X123.461 Y94.6 E.00072
M204 S1000
;WIPE_START
G1 F8640
G1 X123.521 Y94.592 E-.01398
G1 X123.558 Y94.588 E-.00859
G1 X123.756 Y94.718 E-.05469
G1 X126.022 Y92.559 E-.72274
;WIPE_END
G1 Z.6 F720
G1 X92.608 Y130.114 F10800
G1 Z.2 F720
G1 E.8 F2100
M204 S800
;WIDTH:0.405217
G1 F1200
G1 X92.521 Y130.068 E.00296
;WIDTH:0.419999
G1 X92.222 Y129.662 E.01581
G1 X92.181 Y129.475 E.006
G1 X92.195 Y129.079 E.01242
;WIDTH:0.463676
G1 X92.181 Y129.05 E.00113
;WIDTH:0.507353
G1 X92.166 Y129.021 E.00126
;WIDTH:0.55103
G1 X92.152 Y128.991 E.0014
;WIDTH:0.594707
G1 X92.137 Y128.962 E.0015
G1 X92.288 Y128.699 E.01391
;WIDTH:0.569102
G1 X101.259 Y116.503 E.66241
;WIDTH:0.56834
G1 X101.785 Y115.817 E.03777
G1 X102.482 Y114.982 E.04752
;WIDTH:0.566213
G1 X103.14 Y114.262 E.04244
;WIDTH:0.567323
G1 X103.826 Y113.572 E.04243
;WIDTH:0.56746
G1 X103.837 Y113.562 E.00065
;WIDTH:0.567628
G1 X112.668 Y105.074 E.53441
;WIDTH:0.577076
G1 X113.137 Y104.643 E.02829
G1 X113.185 Y104.636 E.00215
;WIDTH:0.537487
G1 X113.234 Y104.629 E.00204
;WIDTH:0.497898
G1 X113.399 Y104.592 E.0064
;WIDTH:0.458949
G1 X113.563 Y104.556 E.00581
;WIDTH:0.419999
G1 X113.923 Y104.564 E.01129
;WIDTH:0.422776
G1 X114.185 Y104.699 E.00931
G1 X114.411 Y104.876 E.00907
;WIDTH:0.42015
G1 X118.34 Y109.862 E.19912
;WIDTH:0.427463
G1 X118.653 Y110.295 E.01708
G1 X118.734 Y110.54 E.00825
;WIDTH:0.419999
G1 X118.697 Y110.915 E.01181
G1 X118.551 Y111.218 E.01055
G1 X117.752 Y112.009 E.03525
G1 X96.053 Y132.859 E.94353
G1 X95.717 Y133.049 E.0121
G1 X95.228 Y133.083 E.01537
;WIDTH:0.445192
G1 X94.918 Y132.956 E.01121
G1 X94.652 Y132.68 E.01282
;WIDTH:0.418468
G1 X93.738 Y131.517 E.04619
;WIDTH:0.445691
G1 X93.525 Y131.128 E.01485
G1 X93.53 Y130.77 E.01199
;WIDTH:0.419999
G1 X93.737 Y130.39 E.01357
G1 X94.573 Y129.562 E.03689
G1 X94.03 Y128.997 E.02457
G1 X93.648 Y129.36 E.01652
G1 X92.789 Y130.103 E.03561
G1 X92.661 Y130.14 E.00418
M204 S1000
;WIPE_START
G1 F8640
G1 X92.608 Y130.114 E-.01363
G1 X92.521 Y130.068 E-.02272
G1 X92.222 Y129.662 E-.11643
G1 X92.181 Y129.475 E-.0442
G1 X92.195 Y129.079 E-.09149
G1 X92.181 Y129.05 E-.00744
G1 X92.166 Y129.021 E-.00754
G1 X92.152 Y128.991 E-.00764
G1 X92.137 Y128.962 E-.00754
G1 X92.288 Y128.699 E-.07002
G1 X93.344 Y127.264 E-.41135
;WIPE_END
G1 Z.6 F720
G1 X81.789 Y146.496 F10800
G1 Z.2 F720
G1 E.8 F2100
M204 S800
;WIDTH:0.51928
G1 F1200
G1 X81.712 Y146.517 E.00316
;WIDTH:0.56892
G1 X81.616 Y146.542 E.00434
;WIDTH:0.57018
G1 X81.03 Y145.92 E.03747
G1 X80.929 Y145.79 E.00722
;WIDTH:0.563443
G1 X80.763 Y145.444 E.01661
;WIDTH:0.566397
G1 X80.678 Y144.935 E.02246
G1 X80.772 Y144.453 E.02138
;WIDTH:0.567464
G1 X80.983 Y144.059 E.01949
;WIDTH:0.568952
G1 X90.959 Y130.505 E.73612
G1 X91.088 Y130.413 E.00693
;WIDTH:0.519868
G1 X91.218 Y130.322 E.00629
;WIDTH:0.470784
G1 X91.474 Y130.249 E.00947
;WIDTH:0.445392
G1 X91.73 Y130.176 E.00891
;WIDTH:0.419999
G1 X91.943 Y130.172 E.00668
G1 X92.117 Y130.233 E.00578
;WIDTH:0.415722
G1 X92.549 Y130.504 E.01581
;WIDTH:0.419999
G1 X92.887 Y130.905 E.01644
;WIDTH:0.445691
G1 X93.443 Y131.749 E.03385
;WIDTH:0.418468
G1 X94.357 Y132.912 E.04619
;WIDTH:0.436516
G1 X94.673 Y133.313 E.01671
G1 X94.729 Y133.482 E.00583
;WIDTH:0.419999
G1 X94.745 Y133.821 E.01064
G1 X94.572 Y134.264 E.01491
G1 X94.133 Y134.711 E.01964
G1 X81.903 Y146.466 E.53187
;WIDTH:0.46964
G1 X81.847 Y146.481 E.00206
M204 S1000
;WIPE_START
G1 F8640
G1 X81.789 Y146.496 E-.01383
G1 X81.712 Y146.517 E-.01843
G1 X81.616 Y146.542 E-.02291
G1 X81.03 Y145.92 E-.19732
G1 X80.929 Y145.79 E-.03801
G1 X80.763 Y145.444 E-.08861
G1 X80.678 Y144.935 E-.11916
G1 X80.772 Y144.453 E-.11339
G1 X80.983 Y144.059 E-.1032
G1 X81.202 Y143.762 E-.08514
;WIPE_END
G1 Z.6 F720
G1 X152.3 Y69.798 F10800
G1 Z.2 F720
G1 E.8 F2100
M204 S800
;WIDTH:0.518307
G1 F1200
G1 X152.316 Y69.802 E.00065
;WIDTH:0.469153
G1 X152.415 Y69.827 E.00362
;WIDTH:0.419999
G1 X156.714 Y74.3 E.19452
G1 X156.715 Y74.56 E.00815
G1 X156.227 Y75.03 E.02124
G1 X146.343 Y84.522 E.42967
G1 X146.177 Y84.642 E.00642
G1 X145.863 Y84.751 E.01042
G1 X145.538 Y84.754 E.01019
;WIDTH:0.421759
G1 X145.358 Y84.694 E.00598
;WIDTH:0.426566
G1 X145.111 Y84.529 E.00948
G1 X144.943 Y84.342 E.00802
;WIDTH:0.422617
G1 X141.191 Y79.561 E.19188
G1 X141.029 Y79.231 E.01161
;WIDTH:0.419999
G1 X141.015 Y78.881 E.01098
;WIDTH:0.454955
G1 X141.122 Y78.548 E.01198
;WIDTH:0.493399
G1 X141.178 Y78.45 E.00423
;WIDTH:0.531842
G1 X141.234 Y78.352 E.00459
;WIDTH:0.570285
G1 X141.291 Y78.254 E.00497
G1 X141.687 Y77.938 E.02222
;WIDTH:0.567635
G1 X152.117 Y69.752 E.57848
;WIDTH:0.567461
G1 X152.217 Y69.777 E.0045
;WIDTH:0.518307
G1 X152.241 Y69.783 E.00098
M204 S1000
;WIPE_START
G1 F8640
G1 X152.3 Y69.798 E-.01406
G1 X152.316 Y69.802 E-.00381
G1 X152.415 Y69.827 E-.02358
G1 X154.692 Y72.196 E-.75855
;WIPE_END
G1 Z.6 F720
G1 X168.624 Y69.331 F10800
G1 Z.2 F720
M73 Q0 S65
G1 E.8 F2100
M204 S800
;WIDTH:0.419999
G1 F1200
G1 X168.773 Y69.541 E.00807
G1 X169 Y70.107 E.01912
G1 X169.056 Y70.68 E.01805
G1 X169.025 Y71.002 E.01014
G1 X168.894 Y71.478 E.01548
G1 X168.749 Y71.781 E.01053
G1 X168.525 Y72.1 E.01222
G1 X168.216 Y72.384 E.01316
G1 X167.905 Y72.567 E.01131
G1 X167.304 Y72.75 E.0197
G1 X166.75 Y72.754 E.01737
G1 X166.251 Y72.647 E.016
G1 X165.814 Y72.418 E.01547
G1 X165.513 Y72.173 E.01217
G1 X165.293 Y71.913 E.01068
G1 X165.13 Y71.636 E.01008
G1 X164.947 Y71.17 E.0157
G1 X164.873 Y70.702 E.01486
G1 X164.9 Y70.307 E.01241
G1 X165.02 Y69.891 E.01358
G1 X165.224 Y69.495 E.01397
G1 X165.457 Y69.181 E.01226
G1 X165.789 Y68.887 E.0139
G1 X166.118 Y68.698 E.0119
G1 X166.444 Y68.582 E.01085
G1 X166.926 Y68.514 E.01526
G1 X167.314 Y68.54 E.01219
G1 X167.733 Y68.649 E.01357
G1 X168.156 Y68.861 E.01484
G1 X168.46 Y69.099 E.01211
G1 X168.589 Y69.282 E.00702
M204 S1000
;WIPE_START
G1 F8640
G1 X168.624 Y69.331 E-.0139
G1 X168.773 Y69.541 E-.05946
G1 X169 Y70.107 E-.14081
G1 X169.056 Y70.68 E-.13294
G1 X169.025 Y71.002 E-.07469
G1 X168.894 Y71.478 E-.114
G1 X168.749 Y71.781 E-.07756
G1 X168.525 Y72.1 E-.09
G1 X168.217 Y72.383 E-.09664
;WIPE_END
G1 Z.6 F720
G1 X167.337 Y67.784 F10800
G1 Z.2 F720
G1 E.8 F2100
M204 S800
;TYPE:Perimeter
G1 F1200
G1 X166.969 Y67.761 E.01156
G1 X166.332 Y67.836 E.02011
G1 X165.858 Y67.99 E.01563
G1 X165.408 Y68.236 E.01608
G1 X164.952 Y68.621 E.01871
G1 X164.614 Y69.052 E.01717
G1 X164.348 Y69.55 E.0177
G1 X164.174 Y70.104 E.01821
G1 X164.12 Y70.659 E.01748
G1 X164.219 Y71.351 E.02192
G1 X163.003 Y70.089 E.05495
G1 X162.695 Y69.901 E.01131
G1 X162.419 Y69.844 E.00884
G1 X162.035 Y69.904 E.01219
G1 X161.715 Y70.106 E.01187
G1 X157.728 Y73.942 E.17347
G1 X157.325 Y74.356 E.01812
G1 X157.363 Y73.908 E.0141
G1 X157.258 Y73.777 E.00526
G1 X152.941 Y69.303 E.19493
G1 X160.413 Y63.457 E.29746
G1 X160.9 Y63.205 E.01719
M73 P1 R65
M73 Q1 S65
G1 X161.432 Y63.05 E.01737
G1 X161.962 Y63.044 E.01662
G1 X162.476 Y63.155 E.01649
G1 X162.97 Y63.364 E.01682
G1 X163.481 Y63.772 E.0205
G1 X167.295 Y67.74 E.17257
M204 S1000
;WIPE_START
G1 F8640
G1 X167.337 Y67.784 E-.01405
G1 X166.969 Y67.761 E-.08514
G1 X166.332 Y67.836 E-.1481
G1 X165.858 Y67.99 E-.11508
G1 X165.408 Y68.236 E-.11842
G1 X164.952 Y68.621 E-.1378
G1 X164.614 Y69.052 E-.12647
G1 X164.502 Y69.262 E-.05494
;WIPE_END
G1 Z.6 F720
G1 X145.78 Y85.446 F10800
G1 Z.2 F720
G1 E.8 F2100
M204 S800
;WIDTH:0.361802
G1 F1200
G1 X145.72 Y85.481 E.00184
G1 X145.78 Y85.515 E.00183
G1 X145.8 Y85.481 E.00105
M204 S1000
;WIPE_START
G1 F8640
G1 X145.78 Y85.515 E-.00911
G1 X145.72 Y85.481 E-.01592
G1 X145.78 Y85.446 E-.01604
;WIPE_END
G1 E-.75893 F2100
G1 Z.6 F720
G1 X95.498 Y133.772 F10800
G1 Z.2 F720
G1 E.8 F2100
M204 S800
;WIDTH:0.35973
G1 F1200
G1 X95.439 Y133.806 E.00179
G1 X95.498 Y133.841 E.00181
G1 X95.518 Y133.806 E.00106
M204 S1000
;WIPE_START
G1 F8640
G1 X95.498 Y133.841 E-.00931
G1 X95.439 Y133.806 E-.01584
G1 X95.498 Y133.772 E-.01572
;WIPE_END
G1 E-.75913 F2100
G1 Z.6 F720
G1 X119.472 Y110.727 F10800
G1 Z.2 F720
G1 E.8 F2100
M204 S800
;WIDTH:0.3656
G1 F1200
G1 X119.411 Y110.762 E.00189
G1 X119.472 Y110.797 E.00189
G1 X119.492 Y110.762 E.00108
M204 S1000
;WIPE_START
G1 F8640
G1 X119.472 Y110.797 E-.00931
G1 X119.411 Y110.762 E-.01624
G1 X119.472 Y110.727 E-.01624
;WIPE_END
G1 E-.75821 F2100
G1 Z.6 F720
G1 X157.045 Y75.378 F10800
G1 Z.2 F720
G1 E.8 F2100
M204 S800
;WIDTH:0.427922
G1 F1200
G1 X156.923 Y75.388 E.00392
G1 X156.701 Y75.533 E.00849
;WIDTH:0.378396
G1 X156.185 Y76.001 E.01943
;WIDTH:0.364748
G1 X155.098 Y77.032 E.04009
;WIDTH:0.360448
G1 X146.804 Y85.002 E.3037
;WIDTH:0.362462
G1 X146.749 Y85.053 E.00199
;WIDTH:0.391231
G1 X146.519 Y85.254 E.00885
;WIDTH:0.419999
G1 X146.289 Y85.455 E.00958
G1 X145.518 Y86.214 E.03392
;WIDTH:0.393327
G1 X145.335 Y86.409 E.00779
;WIDTH:0.366654
G1 X144.516 Y87.203 E.03071
;WIDTH:0.359811
G1 X120.492 Y110.29 E.87794
;WIDTH:0.367835
G1 X120.382 Y110.39 E.00402
;WIDTH:0.393917
G1 X120.158 Y110.587 E.00871
;WIDTH:0.419999
G1 X119.39 Y111.307 E.03301
G1 X119.206 Y111.502 E.00841
;WIDTH:0.393009
G1 X119.023 Y111.697 E.00778
;WIDTH:0.366018
G1 X118.21 Y112.485 E.03042
;WIDTH:0.359239
G1 X96.512 Y133.337 E.79152
;WIDTH:0.367253
G1 X96.402 Y133.437 E.00401
;WIDTH:0.393626
G1 X96.178 Y133.634 E.0087
;WIDTH:0.419999
G1 X95.542 Y134.227 E.02726
G1 X95.295 Y134.483 E.01115
;WIDTH:0.392775
G1 X95.048 Y134.739 E.01035
;WIDTH:0.365551
G1 X94.586 Y135.19 E.01732
;WIDTH:0.356697
G1 X82.359 Y146.941 E.44245
;WIDTH:0.393079
G1 X81.99 Y147.27 E.01439
G1 X81.53 Y146.789 E.01938
G1 X81.941 Y146.856 E.01212
G1 X82.142 Y146.715 E.00715
;WIDTH:0.356697
G1 X94.368 Y134.963 E.44245
;WIDTH:0.356831
G1 X94.379 Y134.953 E.00039
;WIDTH:0.365551
G1 X94.821 Y134.51 E.01679
;WIDTH:0.397423
G1 X94.961 Y134.314 E.0071
;WIDTH:0.419999
G1 X95.132 Y133.788 E.01734
G1 X95.108 Y133.444 E.01081
G1 X95.328 Y133.474 E.00696
G1 X95.761 Y133.424 E.01367
G1 X95.987 Y133.336 E.0076
;WIDTH:0.402565
G1 X96.293 Y133.109 E.01139
;WIDTH:0.359239
G1 X117.992 Y112.259 E.7915
;WIDTH:0.357138
G1 X117.998 Y112.253 E.00022
M73 P1 R64
;WIDTH:0.366018
G1 X118.797 Y111.466 E.03013
;WIDTH:0.37128
G1 X118.855 Y111.403 E.00234
;WIDTH:0.419999
G1 X119.043 Y111.066 E.0121
G1 X119.103 Y110.729 E.01073
G1 X119.087 Y110.392 E.01058
G1 X119.15 Y110.412 E.00207
G1 X119.741 Y110.376 E.01856
G1 X119.966 Y110.289 E.00756
;WIDTH:0.402753
G1 X120.272 Y110.061 E.01142
;WIDTH:0.359811
G1 X144.297 Y86.976 E.87793
;WIDTH:0.357771
G1 X144.304 Y86.97 E.00024
;WIDTH:0.366654
G1 X145.108 Y86.178 E.03038
;WIDTH:0.371921
G1 X145.166 Y86.115 E.00234
;WIDTH:0.419999
G1 X145.354 Y85.777 E.01213
G1 X145.414 Y85.447 E.01052
G1 X145.399 Y85.106 E.0107
G1 X145.877 Y85.128 E.015
G1 X146.308 Y84.983 E.01426
;WIDTH:0.396039
G1 X146.584 Y84.773 E.01018
;WIDTH:0.360448
G1 X154.879 Y76.804 E.3037
;WIDTH:0.364748
G1 X155.963 Y75.768 E.04013
;WIDTH:0.365008
G1 X155.979 Y75.753 E.00059
;WIDTH:0.378396
G1 X156.474 Y75.287 E.01896
;WIDTH:0.378507
G1 X156.974 Y74.805 E.01938
;WIDTH:0.419999
G1 X157.049 Y74.117 E.0217
G1 X156.986 Y74.039 E.00314
G1 X152.687 Y69.566 E.19452
G1 X152.052 Y69.521 E.01996
G1 X159.955 Y63.319 E.31498
G1 X160.419 Y63 E.01765
G1 X160.962 Y62.769 E.0185
G1 X161.601 Y62.662 E.02031
G1 X162.223 Y62.691 E.01952
G1 X162.794 Y62.854 E.01862
G1 X163.322 Y63.152 E.01901
G1 X163.746 Y63.504 E.01728
G1 X168.101 Y68.035 E.19705
;WIDTH:0.460749
G1 X168.182 Y68.148 E.00483
;WIDTH:0.501498
G1 X168.263 Y68.262 E.00533
;WIDTH:0.542247
G1 X168.343 Y68.375 E.00575
;WIDTH:0.582996
G1 X168.424 Y68.489 E.00628
G1 X168.293 Y68.444 E.00622
;WIDTH:0.542247
G1 X168.162 Y68.4 E.00574
;WIDTH:0.501498
G1 X168.03 Y68.355 E.00532
;WIDTH:0.460749
